assets/icons/24px/outline/heart-24px.svg

<svg width="24" height="24" viewBox="0 0 24 24" fill="none" xmlns="http://www.w3.org/2000/svg">
<path d="M16.5457 3V2C16.5254 2 16.505 2.00062 16.4847 2.00186L16.5457 3ZM13.9381 3.83519L13.4099 2.98604L13.9381 3.83519ZM7.45429 3L7.5153 2.00186C7.49499 2.00062 7.47464 2 7.45429 2L7.45429 3ZM2 8.6547H1H2ZM12 21L11.4296 21.8213C11.7711 22.0585 12.2237 22.0596 12.5664 21.8241L12 21ZM22 8.6547H21H22ZM12.0173 5.79819L12.8757 6.3112L12.0173 5.79819ZM11.9827 5.79819L11.1243 6.3112L11.9827 5.79819ZM12 5.81767L12 4.81767L12 5.81767ZM16.4847 2.00186C15.3959 2.06842 14.341 2.40696 13.4099 2.98604L14.4663 4.68434C15.1183 4.27879 15.8526 4.04424 16.6067 3.99814L16.4847 2.00186ZM13.4099 2.98604C12.4902 3.55808 11.7194 4.34734 11.1589 5.28518L12.8757 6.3112C13.2756 5.64208 13.8218 5.08518 14.4663 4.68434L13.4099 2.98604ZM12.8411 5.28518C12.2806 4.34734 11.5098 3.55808 10.5901 2.98604L9.53374 4.68434C10.1782 5.08518 10.7244 5.64208 11.1243 6.3112L12.8411 5.28518ZM10.5901 2.98604C9.65902 2.40696 8.60409 2.06842 7.5153 2.00186L7.39327 3.99814C8.14738 4.04424 8.88172 4.27879 9.53374 4.68434L10.5901 2.98604ZM7.45429 2C5.73062 2 4.08518 2.71022 2.87778 3.96199L4.31727 5.35046C5.15562 4.4813 6.28482 4 7.45429 4L7.45429 2ZM2.87778 3.96199C1.67156 5.21253 1 6.90117 1 8.6547H3C3 7.40879 3.47773 6.22085 4.31727 5.35046L2.87778 3.96199ZM1 8.6547C1 10.294 1.74894 11.9398 2.72968 13.4153C3.72254 14.9091 5.02833 16.34 6.30577 17.5721C7.58738 18.8082 8.86505 19.8678 9.82025 20.6172C10.2986 20.9925 10.698 21.2915 10.9791 21.4975C11.1196 21.6006 11.2307 21.6804 11.3074 21.7351C11.3458 21.7624 11.3755 21.7834 11.3961 21.7979C11.4064 21.8051 11.4143 21.8107 11.4199 21.8146C11.4227 21.8166 11.425 21.8181 11.4266 21.8192C11.4274 21.8198 11.428 21.8203 11.4285 21.8206C11.4288 21.8208 11.429 21.821 11.4291 21.8211C11.4294 21.8212 11.4296 21.8213 12 21C12.5704 20.1787 12.5706 20.1787 12.5706 20.1788C12.5706 20.1788 12.5706 20.1788 12.5706 20.1788C12.5705 20.1787 12.5702 20.1785 12.5698 20.1782C12.569 20.1776 12.5676 20.1767 12.5656 20.1753C12.5616 20.1725 12.5552 20.168 12.5466 20.1619C12.5293 20.1498 12.5029 20.1311 12.468 20.1063C12.3982 20.0565 12.2944 19.9819 12.1616 19.8845C11.8957 19.6896 11.5139 19.4038 11.0547 19.0436C10.1349 18.322 8.91262 17.3078 7.69423 16.1326C6.47167 14.9534 5.27746 13.6354 4.39532 12.3082C3.50106 10.9628 3 9.71543 3 8.6547H1ZM12 21C12.5664 21.8241 12.5666 21.824 12.5668 21.8238C12.5669 21.8238 12.5672 21.8236 12.5675 21.8234C12.568 21.8231 12.5686 21.8226 12.5694 21.822C12.571 21.8209 12.5733 21.8194 12.5761 21.8175C12.5817 21.8136 12.5897 21.808 12.6 21.8008C12.6206 21.7865 12.6504 21.7657 12.6888 21.7386C12.7656 21.6844 12.8767 21.6052 13.0174 21.5031C13.2986 21.2988 13.6982 21.0023 14.1768 20.6297C15.1324 19.8858 16.4107 18.8327 17.6929 17.6006C18.971 16.3725 20.2775 14.9432 21.2709 13.445C22.2531 11.9637 23 10.3098 23 8.6547H21C21 9.73586 20.4969 10.9932 19.6041 12.3398C18.7225 13.6693 17.529 14.9843 16.3071 16.1585C15.0893 17.3287 13.8676 18.3358 12.9482 19.0515C12.4893 19.4088 12.1077 19.6919 11.842 19.8849C11.7092 19.9814 11.6055 20.0552 11.5358 20.1044C11.501 20.129 11.4746 20.1474 11.4574 20.1594C11.4488 20.1654 11.4424 20.1698 11.4384 20.1725C11.4364 20.1739 11.435 20.1749 11.4342 20.1754C11.4338 20.1757 11.4336 20.1759 11.4335 20.176C11.4334 20.176 11.4334 20.176 11.4334 20.176C11.4335 20.1759 11.4336 20.1759 12 21ZM23 8.6547C23 6.90118 22.3284 5.21253 21.1222 3.96199L19.6827 5.35046C20.5223 6.22084 21 7.40879 21 8.6547L23 8.6547ZM21.1222 3.96199C19.9148 2.71022 18.2694 2 16.5457 2V4C17.7152 4 18.8444 4.4813 19.6827 5.35046L21.1222 3.96199ZM11.1589 5.28518C11.138 5.32026 11.1783 5.24777 11.2331 5.18054C11.2934 5.10662 11.5471 4.81767 12 4.81767L12 6.81767C12.4586 6.81767 12.717 6.52547 12.7826 6.44506C12.8213 6.39767 12.8475 6.35667 12.8567 6.3422C12.8626 6.33291 12.8673 6.32515 12.87 6.32068C12.8726 6.31635 12.8751 6.31226 12.8757 6.3112L11.1589 5.28518ZM11.1243 6.3112C11.1249 6.31226 11.1274 6.31635 11.13 6.32068C11.1327 6.32515 11.1374 6.33291 11.1433 6.3422C11.1525 6.35667 11.1787 6.39767 11.2174 6.44506C11.283 6.52547 11.5414 6.81767 12 6.81767L12 4.81767C12.4529 4.81767 12.7066 5.10662 12.7669 5.18054C12.8217 5.24777 12.862 5.32026 12.8411 5.28518L11.1243 6.3112Z" fill="white"/>
</svg>

<svg width="24" height="24" fill="none" xmlns="http://www.w3.org/2000/svg"><path d="M16.546 3V2c-.02 0-.041 0-.061.002l.06.998zm-2.608.835l-.528-.849.528.85zM7.454 3l.061-.998A1.001 1.001 0 0 0 7.455 2v1zM2 8.655H1h1zM12 21l-.57.821a1 1 0 0 0 1.136.003L12 21zM22 8.655h-1 1zm-9.983-2.857l.859.513-.859-.513zm-.034 0l-.859.513.859-.513zm.017.02v-1 1zm4.485-3.816a6.58 6.58 0 0 0-3.075.984l1.056 1.698a4.58 4.58 0 0 1 2.14-.686l-.121-1.996zm-3.075.984a6.829 6.829 0 0 0-2.251 2.3l1.717 1.025c.4-.669.946-1.226 1.59-1.627L13.41 2.986zm-.569 2.3a6.829 6.829 0 0 0-2.25-2.3L9.533 4.684c.644.401 1.19.958 1.59 1.627l1.717-1.026zm-2.25-2.3a6.58 6.58 0 0 0-3.076-.984l-.122 1.996a4.58 4.58 0 0 1 2.14.686l1.057-1.698zM7.453 2c-1.723 0-3.369.71-4.576 1.962l1.44 1.388A4.358 4.358 0 0 1 7.453 4V2zM2.878 3.962A6.762 6.762 0 0 0 1 8.655h2c0-1.246.478-2.434 1.317-3.305l-1.44-1.388zM1 8.655c0 1.639.749 3.285 1.73 4.76.993 1.494 2.298 2.925 3.576 4.157a46.419 46.419 0 0 0 5.09 4.226l.024.017.007.004.002.002L12 21l.57-.821-.004-.004a3.82 3.82 0 0 1-.098-.069 43.018 43.018 0 0 1-1.413-1.063 44.396 44.396 0 0 1-3.36-2.91c-1.223-1.18-2.418-2.498-3.3-3.825C3.501 10.963 3 9.715 3 8.655H1zM12 21l.567.824.002-.002.007-.005.024-.016.089-.062c.077-.055.188-.134.328-.236a45.462 45.462 0 0 0 4.676-3.902c1.278-1.229 2.585-2.658 3.578-4.156C22.253 11.964 23 10.31 23 8.655h-2c0 1.08-.503 2.338-1.396 3.685-.881 1.33-2.075 2.644-3.297 3.819a43.462 43.462 0 0 1-4.771 3.945l-.079.055-.019.014-.004.002v.001L12 21zM23 8.655a6.762 6.762 0 0 0-1.878-4.693l-1.44 1.388A4.762 4.762 0 0 1 21 8.655h2zm-1.878-4.693A6.358 6.358 0 0 0 16.546 2v2c1.17 0 2.298.481 3.137 1.35l1.44-1.388zM11.16 5.285c-.021.035.02-.037.074-.104A.99.99 0 0 1 12 4.818v2a1.01 1.01 0 0 0 .87-.497l.006-.01-1.717-1.026zm-.035 1.026l.006.01a1.101 1.101 0 0 0 .087.124c.066.08.324.373.783.373v-2a.99.99 0 0 1 .767.363c.055.067.095.14.074.104l-1.717 1.026z" fill="#fff"/></svg>
